static/rooms/river/bench.3.svg

<svg width="230" height="150" xmlns="http://www.w3.org/2000/svg" xml:space="preserve" style="fill-rule:evenodd;clip-rule:evenodd;stroke-linejoin:round;stroke-miterlimit:2"><path d="m572.433 801.407 57.244 28.621v-31.249l-57.244-28.621v31.249Z" style="fill:url(#a)" transform="translate(-571.92 -681.673)"/><path d="m629.677 830.028 171.73-85.865-.72-33.56-171.01 88.176v31.249Z" style="fill:url(#b)" transform="translate(-571.92 -681.673)"/><path d="m800.687 710.603-171.01 88.176-57.244-28.621 173.682-86.841 55.292 27.646-171.73 87.816" style="fill:#564a3e" transform="translate(-571.92 -681.673)"/><path d="M608.417 819.399c-1.081-9.554 1.294-19.245 4.371-28.965 20.687-3.016 30.825-2.817 34.089-.523 4.915 4.005 9.506 8.054 12.148 12.368 2.382 3.889 3.18 7.993 1.202 12.475l-30.55 15.274-21.26-10.629Zm-6.635-3.318 1.338.669s2.874-27.202 6.874-27.72c10.618-1.375 24.599-6.371 40.796-1.384 5.953 1.561 10.481 4.243 13.589 8.041 3.06 3.74 4.743 8.562 5.056 14.462l1.23-.615c.164-23.883-31.403-31.1-62.195-21.269-8.569 2.736-6.688 27.816-6.688 27.816Zm-3.354-1.677 1.292.646s-5.712-27.101 3.815-29.265c22.483-5.109 40.205-6.481 52.586-3.662 13.359 3.042 20.501 10.962 20.702 24.332l2.036-1.018c1.229-27.043-25.611-32.685-76.304-20.144-9.254 2.289-4.127 29.111-4.127 29.111Zm-4.115-2.057 1.925.962s-5.457-27.347 2.803-29.782c29.876-8.806 51.788-11.345 65.801-7.672 13.325 3.493 19.51 12.602 18.615 27.284l.956-.479c3.656-32.503-25.485-38.646-86.093-19.496-8.072 2.551-4.007 29.183-4.007 29.183Zm-3.42-1.71 1.651.825s-6.105-29.028.454-30.971c34.39-10.187 60.58-13.938 77.176-10.159 14.909 3.395 22.075 12.865 20.49 29.203l1.734-.867c5.514-35.715-30.248-39.966-99.863-18.41-6.415 1.986-1.642 30.379-1.642 30.379Zm106.236-14.335.754-.377c7.859-41.289-29.21-46.591-109.127-17.566-4.084 1.484-.672 30.873-.672 30.873l.314.157s-2.216-29.7.879-30.768c42.022-14.512 71.515-19.544 89.146-14.927 15.066 3.944 21.274 14.834 18.706 32.608Zm-112.035 11.435 1.746.873s-5.791-31.308-2.433-32.436c46.242-15.537 79.092-22.825 99.534-18.177 16.731 3.805 24.001 15.011 20.471 34.664l1.51-.755c10.525-44.836-32.828-46.781-121.893-15.922-3.291 1.141 1.065 31.753 1.065 31.753Zm-4.96-33.729-.339-.169c-.34 10.647.441 21.352 2.103 32.3l1.355.678c-2.246-11.185-3.978-22.325-3.119-32.809ZM576.099 772l.347.174c-.447 10.977 1.027 21.953 2.982 32.73l-1.249-.624c-1.362-10.875-1.919-21.506-2.08-32.28Zm-2.264-1.138.224.112c-.014 10.564.826 21.382 1.62 32.056l-.863-.432c-.376-10.522-.605-21.014-.981-31.736Zm136.833 18.671.493-.247c12.825-48.56-28.234-53.957-120.455-18.368 48.852-18.041 82.88-24.458 102.256-19.384 16.535 4.329 22.401 17.024 17.706 37.999Zm7.071-3.536 1.167-.583c16.48-52.886-34.116-54.795-137.008-16.956 53.971-19.362 93.94-27.769 116.582-22.62 18.232 4.145 25.23 17.08 19.259 40.159Zm7.032-3.516.421-.21c21.344-52.419-23.401-58.791-130.827-21.494 55.686-18.531 93.96-25.171 115.024-20.059 18.825 4.568 23.905 18.523 15.382 41.763Zm-109.346-33.819-1.262.631c46.561-13.399 81.257-18.712 101.823-14.396 20.594 4.322 27.018 18.299 17 43.477l1.196-.598c23.295-51.398-20.851-58.076-118.757-29.114Zm10.129-5.065-1.112.556c48.72-15.321 82.698-20.576 102.089-15.87 20.091 4.876 24.525 20.443 13.479 46.579l.181-.091c25.026-54.449-14.271-64.082-114.637-31.174Zm24.79-12.394-1.905.952c38.002-9.889 66.732-13.461 84.688-9.693 21.898 4.596 27.775 20.107 14.902 48.39l.841-.42c26.797-52.623-10.205-62.94-98.526-39.229Zm17.519-8.76-2.857 1.429c35.957-9.548 61.982-12.332 78.159-8.411 21.674 5.253 25.67 22.541 12.195 51.726l.014-.007c26.664-53.695-3.394-67.994-87.511-44.737Zm19.017-9.508-2.676 1.337c28.631-6.158 50.833-7.948 65.787-4.814 23.562 4.938 29.13 22.1 13.509 53.659l.595-.298c13.743-25.054 14.366-41.435 3.005-49.894-12.575-9.362-39.828-9.019-80.22.01Zm31.209-15.605c8.616-1.617 16.523-2.765 23.701-3.432 9.923-.922 18.453-.924 25.54.026l22.195 11.098c6.616 10.075 3.272 26.728-10.868 50.516l-.199.1c18.954-34.973 14.126-53.793-10.736-59.004-12.589-2.638-30.314-1.787-52.688 2.223l3.055-1.527Zm-16.179 8.089-3.507 1.754c27.952-6.362 48.768-7.862 62.494-4.536 21.75 5.272 25.698 22.663 12.054 52.032 25.114-50.309.715-66.225-71.041-49.25Z" style="fill:#363636;fill-opacity:.35" transform="translate(-571.92 -681.673)"/><defs><linearGradient id="a" x1="0" y1="0" x2="1" y2="0" gradientUnits="userSpaceOnUse" gradientTransform="rotate(106.525 8.309 618.048) scale(47.5553)"><stop offset="0" style="stop-color:#54462b;stop-opacity:1"/><stop offset=".44" style="stop-color:#604e2b;stop-opacity:1"/><stop offset="1" style="stop-color:#7c5f2b;stop-opacity:1"/></linearGradient><linearGradient id="b" x1="0" y1="0" x2="1" y2="0" gradientUnits="userSpaceOnUse" gradientTransform="rotate(64.32 -242.966 945.8) scale(35.511)"><stop offset="0" style="stop-color:#54462b;stop-opacity:1"/><stop offset=".45" style="stop-color:#604d2b;stop-opacity:1"/><stop offset="1" style="stop-color:#7c5f2b;stop-opacity:1"/></linearGradient></defs></svg>

<?xml version="1.0" encoding="UTF-8" standalone="no"?>
<!DOCTYPE svg PUBLIC "-//W3C//DTD SVG 1.1//EN" "http://www.w3.org/Graphics/SVG/1.1/DTD/svg11.dtd">
<svg width="230" height="150" viewBox="0 0 230 150" version="1.1" xmlns="http://www.w3.org/2000/svg" xmlns:xlink="http://www.w3.org/1999/xlink" xml:space="preserve" xmlns:serif="http://www.serif.com/" style="fill-rule:evenodd;clip-rule:evenodd;stroke-linejoin:round;stroke-miterlimit:2;">
    <g transform="matrix(1,0,0,1,-571.92,-681.673)">
        <path d="M572.433,801.407L629.677,830.028L629.677,798.779L572.433,770.158L572.433,801.407Z" style="fill:url(#_Linear1);"/>
    </g>
    <g transform="matrix(1,0,0,1,-571.92,-681.673)">
        <path d="M629.677,830.028L801.407,744.163L800.687,710.603L629.677,798.779L629.677,830.028Z" style="fill:url(#_Linear2);"/>
    </g>
    <g transform="matrix(1,0,0,1,-571.92,-681.673)">
        <path d="M800.687,710.603L629.677,798.779L572.433,770.158L746.115,683.317L801.407,710.963L629.677,798.779" style="fill:rgb(86,74,62);"/>
    </g>
    <g transform="matrix(1,0,0,1,-571.92,-681.673)">
        <path d="M608.417,819.399C607.336,809.845 609.711,800.154 612.788,790.434C633.475,787.418 643.613,787.617 646.877,789.911C651.792,793.916 656.383,797.965 659.025,802.279C661.407,806.168 662.205,810.272 660.227,814.754L629.677,830.028L608.417,819.399ZM601.782,816.081L603.12,816.75C603.12,816.75 605.994,789.548 609.994,789.03C620.612,787.655 634.593,782.659 650.79,787.646C656.743,789.207 661.271,791.889 664.379,795.687C667.439,799.427 669.122,804.249 669.435,810.149L670.665,809.534C670.829,785.651 639.262,778.434 608.47,788.265C599.901,791.001 601.782,816.081 601.782,816.081ZM598.428,814.404L599.72,815.05C599.72,815.05 594.008,787.949 603.535,785.785C626.018,780.676 643.74,779.304 656.121,782.123C669.48,785.165 676.622,793.085 676.823,806.455L678.859,805.437C680.088,778.394 653.248,772.752 602.555,785.293C593.301,787.582 598.428,814.404 598.428,814.404ZM594.313,812.347L596.238,813.309C596.238,813.309 590.781,785.962 599.041,783.527C628.917,774.721 650.829,772.182 664.842,775.855C678.167,779.348 684.352,788.457 683.457,803.139L684.413,802.66C688.069,770.157 658.928,764.014 598.32,783.164C590.248,785.715 594.313,812.347 594.313,812.347ZM590.893,810.637L592.544,811.462C592.544,811.462 586.439,782.434 592.998,780.491C627.388,770.304 653.578,766.553 670.174,770.332C685.083,773.727 692.249,783.197 690.664,799.535L692.398,798.668C697.912,762.953 662.15,758.702 592.535,780.258C586.12,782.244 590.893,810.637 590.893,810.637ZM697.129,796.302L697.883,795.925C705.742,754.636 668.673,749.334 588.756,778.359C584.672,779.843 588.084,809.232 588.084,809.232L588.398,809.389C588.398,809.389 586.182,779.689 589.277,778.621C631.299,764.109 660.792,759.077 678.423,763.694C693.489,767.638 699.697,778.528 697.129,796.302ZM585.094,807.737L586.84,808.61C586.84,808.61 581.049,777.302 584.407,776.174C630.649,760.637 663.499,753.349 683.941,757.997C700.672,761.802 707.942,773.008 704.412,792.661L705.922,791.906C716.447,747.07 673.094,745.125 584.029,775.984C580.738,777.125 585.094,807.737 585.094,807.737ZM580.134,774.008L579.795,773.839C579.455,784.486 580.236,795.191 581.898,806.139L583.253,806.817C581.007,795.632 579.275,784.492 580.134,774.008ZM576.099,772L576.446,772.174C575.999,783.151 577.473,794.127 579.428,804.904L578.179,804.28C576.817,793.405 576.26,782.774 576.099,772ZM573.835,770.862L574.059,770.974C574.045,781.538 574.885,792.356 575.679,803.03L574.816,802.598C574.44,792.076 574.211,781.584 573.835,770.862ZM710.668,789.533L711.161,789.286C723.986,740.726 682.927,735.329 590.706,770.918C639.558,752.877 673.586,746.46 692.962,751.534C709.497,755.863 715.363,768.558 710.668,789.533ZM717.739,785.997L718.906,785.414C735.386,732.528 684.79,730.619 581.898,768.458C635.869,749.096 675.838,740.689 698.48,745.838C716.712,749.983 723.71,762.918 717.739,785.997ZM724.771,782.481L725.192,782.271C746.536,729.852 701.791,723.48 594.365,760.777C650.051,742.246 688.325,735.606 709.389,740.718C728.214,745.286 733.294,759.241 724.771,782.481ZM615.425,748.662L614.163,749.293C660.724,735.894 695.42,730.581 715.986,734.897C736.58,739.219 743.004,753.196 732.986,778.374L734.182,777.776C757.477,726.378 713.331,719.7 615.425,748.662ZM625.554,743.597L624.442,744.153C673.162,728.832 707.14,723.577 726.531,728.283C746.622,733.159 751.056,748.726 740.01,774.862L740.191,774.771C765.217,720.322 725.92,710.689 625.554,743.597ZM650.344,731.203L648.439,732.155C686.441,722.266 715.171,718.694 733.127,722.462C755.025,727.058 760.902,742.569 748.029,770.852L748.87,770.432C775.667,717.809 738.665,707.492 650.344,731.203ZM667.863,722.443L665.006,723.872C700.963,714.324 726.988,711.54 743.165,715.461C764.839,720.714 768.835,738.002 755.36,767.187L755.374,767.18C782.038,713.485 751.98,699.186 667.863,722.443ZM686.88,712.935L684.204,714.272C712.835,708.114 735.037,706.324 749.991,709.458C773.553,714.396 779.121,731.558 763.5,763.117L764.095,762.819C777.838,737.765 778.461,721.384 767.1,712.925C754.525,703.563 727.272,703.906 686.88,712.935ZM718.089,697.33C726.705,695.713 734.612,694.565 741.79,693.898C751.713,692.976 760.243,692.974 767.33,693.924L789.525,705.022C796.141,715.097 792.797,731.75 778.657,755.538L778.458,755.638C797.412,720.665 792.584,701.845 767.722,696.634C755.133,693.996 737.408,694.847 715.034,698.857L718.089,697.33ZM701.91,705.419L698.403,707.173C726.355,700.811 747.171,699.311 760.897,702.637C782.647,707.909 786.595,725.3 772.951,754.669C798.065,704.36 773.666,688.444 701.91,705.419Z" style="fill:rgb(54,54,54);fill-opacity:0.35;"/>
    </g>
    <defs>
        <linearGradient id="_Linear1" x1="0" y1="0" x2="1" y2="0" gradientUnits="userSpaceOnUse" gradientTransform="matrix(-13.5262,45.5911,-45.5911,-13.5262,603.193,785.875)"><stop offset="0" style="stop-color:rgb(84,70,43);stop-opacity:1"/><stop offset="0.44" style="stop-color:rgb(96,78,43);stop-opacity:1"/><stop offset="1" style="stop-color:rgb(124,95,43);stop-opacity:1"/></linearGradient>
        <linearGradient id="_Linear2" x1="0" y1="0" x2="1" y2="0" gradientUnits="userSpaceOnUse" gradientTransform="matrix(15.3885,32.0036,-32.0036,15.3885,714.709,754.935)"><stop offset="0" style="stop-color:rgb(84,70,43);stop-opacity:1"/><stop offset="0.45" style="stop-color:rgb(96,77,43);stop-opacity:1"/><stop offset="1" style="stop-color:rgb(124,95,43);stop-opacity:1"/></linearGradient>
    </defs>
</svg>
